img/okx.svg

<svg width="71" height="21" viewBox="0 0 71 21" fill="none" xmlns="http://www.w3.org/2000/svg">
<g clip-path="url('#clip0_20_2518')">
<path d="M20.8228 0.00464551H0.473553C0.347272 0.00464551 0.226854 0.0535761 0.138007 0.141461C0.0947613 0.183502 0.0601919 0.234467 0.0364496 0.291186C0.0127074 0.347904 0.000300151 0.409162 0 0.471149L0 20.5279C0 20.6514 0.0496103 20.7702 0.138458 20.8576C0.227305 20.945 0.347723 20.9944 0.473102 20.9944H20.8228C20.9486 20.9944 21.0686 20.945 21.1579 20.8576C21.2012 20.8156 21.2358 20.7647 21.2597 20.7079C21.2835 20.6512 21.296 20.5899 21.2963 20.5279V0.471149C21.2963 0.347635 21.2467 0.228871 21.1579 0.141461C21.0666 0.0528605 20.9469 0.00397334 20.8228 0.00464551ZM14.1976 13.5313C14.1976 13.6548 14.148 13.7736 14.0587 13.861C13.9677 13.9494 13.8483 13.9983 13.7245 13.9978H7.57188C7.44651 13.9978 7.32609 13.9484 7.23724 13.861C7.19391 13.819 7.15926 13.7681 7.13544 13.7114C7.11162 13.6546 7.09914 13.5934 7.09878 13.5313V7.46774C7.09878 7.34423 7.14839 7.22547 7.23724 7.13806C7.32609 7.05017 7.44651 7.00124 7.57188 7.00124H13.7245C13.8498 7.00124 13.9703 7.05017 14.0587 7.13806C14.1021 7.18 14.1368 7.23092 14.1607 7.28765C14.1846 7.34437 14.1972 7.40568 14.1976 7.46774V13.5313ZM63.4245 7.00219H57.2719C57.0103 7.00219 56.7984 7.21121 56.7984 7.46869V13.5323C56.7984 13.7898 57.0103 13.9988 57.2719 13.9988H63.4241C63.6856 13.9988 63.8976 13.7898 63.8976 13.5323V7.46869C63.8976 7.21074 63.6856 7.00219 63.4241 7.00219H63.4245ZM56.3271 0.00464551H50.1749C49.9134 0.00464551 49.7014 0.213669 49.7014 0.471624V6.53521C49.7014 6.79269 49.9134 7.00172 50.1749 7.00172H56.3266C56.5882 7.00172 56.8002 6.79269 56.8002 6.53521V0.471624C56.8002 0.213669 56.5882 0.00512057 56.3266 0.00512057L56.3271 0.00464551ZM70.5269 0.00464551H64.3743C64.1132 0.00464551 63.9012 0.213669 63.9012 0.471624V6.53521C63.9012 6.79269 64.1132 7.00172 64.3748 7.00172H70.5264C70.788 7.00172 71 6.79269 71 6.53521V0.471624C71 0.213669 70.788 0.00512057 70.5264 0.00512057L70.5269 0.00464551ZM56.3271 13.9983H50.1749C49.9134 13.9983 49.7014 14.2073 49.7014 14.4648V20.5289C49.7014 20.7864 49.9134 20.9949 50.1749 20.9949H56.3266C56.5882 20.9949 56.8002 20.7859 56.8002 20.5289V14.4648C56.8002 14.2073 56.5887 13.9983 56.3271 13.9983ZM70.5269 13.9983H64.3743C64.1132 13.9983 63.9012 14.2073 63.9012 14.4648V20.5289C63.9012 20.7864 64.1132 20.9949 64.3748 20.9949H70.5264C70.788 20.9949 71 20.7859 71 20.5289V14.4648C71 14.2073 70.788 13.9983 70.5264 13.9983H70.5269ZM45.6703 0.00464551H39.5187C39.2571 0.00464551 39.0451 0.213669 39.0451 0.471624V6.53521C39.0451 6.79269 39.2571 7.00172 39.5187 7.00172H45.6703C45.9319 7.00172 46.1439 6.79269 46.1439 6.53521V0.471624C46.1439 0.213669 45.9319 0.00512057 45.6703 0.00512057V0.00464551ZM45.6703 13.9983H39.5187C39.2571 13.9983 39.0451 14.2073 39.0451 14.4648V20.5289C39.0451 20.7864 39.2571 20.9949 39.5187 20.9949H45.6703C45.9319 20.9949 46.1439 20.7859 46.1439 20.5289V14.4648C46.1439 14.2073 45.9319 13.9983 45.6703 13.9983ZM39.0433 7.46252C39.0433 7.339 38.9928 7.22024 38.9044 7.13236C38.8132 7.044 38.6936 6.99529 38.5697 6.99602H31.9441V0.471149C31.9441 0.347635 31.8945 0.228871 31.8056 0.141461C31.7145 0.0529317 31.5949 0.00404633 31.471 0.00464551H25.3188C25.193 0.00464551 25.0726 0.0535761 24.9837 0.141461C24.9404 0.18346 24.9058 0.234407 24.8819 0.291127C24.8581 0.347848 24.8456 0.409127 24.8453 0.471149V20.5175C24.8453 20.641 24.8949 20.7598 24.9837 20.8472C25.0726 20.9346 25.193 20.984 25.3188 20.984H31.4705C31.5963 20.984 31.7168 20.9346 31.8056 20.8472C31.8945 20.7598 31.9441 20.641 31.9441 20.5175V13.9926H38.5693C38.6951 13.9926 38.8155 13.9432 38.9044 13.8558C38.9477 13.8138 38.9823 13.7628 39.0062 13.7061C39.03 13.6494 39.0425 13.5881 39.0429 13.5261L39.0433 7.46252Z" fill="white"></path>
</g>
<defs>
<clipPath id="clip0_20_2518">
<rect width="71" height="21" fill="white"></rect>
</clipPath>
</defs>
</svg>

<svg width="71" height="21" fill="none" xmlns="http://www.w3.org/2000/svg"><g clip-path="url('#clip0_20_2518')"><path d="M20.823.005H.473A.476.476 0 0 0 .037.29.472.472 0 0 0 0 .471v20.057c0 .123.05.242.138.33.09.087.21.136.335.136h20.35a.479.479 0 0 0 .437-.286.471.471 0 0 0 .036-.18V.47a.463.463 0 0 0-.138-.33.477.477 0 0 0-.335-.136ZM14.198 13.53c0 .124-.05.243-.14.33a.477.477 0 0 1-.333.137H7.572a.478.478 0 0 1-.437-.287.473.473 0 0 1-.036-.18V7.468c0-.124.05-.243.138-.33a.476.476 0 0 1 .335-.137h6.153a.474.474 0 0 1 .473.467v6.063Zm49.227-6.529h-6.153a.47.47 0 0 0-.474.467v6.063a.47.47 0 0 0 .474.467h6.152a.47.47 0 0 0 .474-.467V7.47a.47.47 0 0 0-.474-.467ZM56.327.005h-6.152a.47.47 0 0 0-.474.467v6.063a.47.47 0 0 0 .474.467h6.152a.47.47 0 0 0 .473-.467V.472a.47.47 0 0 0-.473-.467Zm14.2 0h-6.153a.47.47 0 0 0-.473.467v6.063a.47.47 0 0 0 .474.467h6.151A.47.47 0 0 0 71 6.535V.472a.47.47 0 0 0-.474-.467Zm-14.2 13.993h-6.152a.47.47 0 0 0-.474.467v6.064a.47.47 0 0 0 .474.466h6.152a.47.47 0 0 0 .473-.466v-6.064a.47.47 0 0 0-.473-.467Zm14.2 0h-6.153a.47.47 0 0 0-.473.467v6.064a.47.47 0 0 0 .474.466h6.151a.47.47 0 0 0 .474-.466v-6.064a.47.47 0 0 0-.474-.467ZM45.67.005H39.52a.47.47 0 0 0-.474.467v6.063a.47.47 0 0 0 .474.467h6.151a.47.47 0 0 0 .474-.467V.472a.47.47 0 0 0-.474-.467Zm0 13.993H39.52a.47.47 0 0 0-.474.467v6.064a.47.47 0 0 0 .474.466h6.151a.47.47 0 0 0 .474-.466v-6.064a.47.47 0 0 0-.474-.467Zm-6.627-6.535a.467.467 0 0 0-.473-.467h-6.626V.471a.462.462 0 0 0-.138-.33.477.477 0 0 0-.335-.136h-6.152a.476.476 0 0 0-.437.286.472.472 0 0 0-.037.18v20.046c0 .124.05.243.139.33.089.088.209.137.335.137h6.152c.125 0 .246-.05.335-.137a.462.462 0 0 0 .138-.33v-6.524h6.625a.478.478 0 0 0 .437-.287.473.473 0 0 0 .037-.18V7.463Z" fill="#fff"/></g><defs><clipPath id="clip0_20_2518"><path fill="#fff" d="M0 0h71v21H0z"/></clipPath></defs></svg>
